X: 3
T: Miss Johnson
R: reel
M: 4/4
L: 1/8
K: Gmaj
|: Bd cA GG DG | GG BA Gz eg | fd cA GF DG | E/2F/2G AB cA A2 :||: Bd ^ce d2 zA | B/2c/2d ga agag | B/2c/2d ^ce defg | aafa gfed :|


Tune 2411	Setting 15754

